X: 2897
T: Barney Brannigan
R: slip jig
M: 9/8
K: Dmajor
F2A A2B A3|F2A A2A Bcd|F2A A2B A3|e2f e2d B2A:|
|:f2a a2f d3|e2f e2d B2A|f2d e2c d3|B2=c B2A F2D:|

